!!!!SEGMENT: pl-kk--kk-i-111--010_anonim--deo-gratias-de-sanctis-angelis.krn
!!!cenid: 18xx:2579
!!!COM: Anonim
!!!COM-rismID: pe30004985
!!!CDT:
!!!CNT:
!!!OTL: Deo gratias
!!!PDT: 1824
!!!AGN: Sacred
!!!SMS-siglum: PL-Kk
!!!SMS-shelfmark: Kk.I.111
!!!SMS-shelfwork: 010 W
!!!SMS-variant:
!!!SMS-altvar:
!!!NIFC-rismSourceID: 1001157694
!!!NIFC-islandoraID: pl-kk:3371
!!!URL-pdf-islandora: https://repozytorium.nifc.pl/islandora/object/pl-kk%3A3371/datastream/PDF/view
!!!URL-scan: https://polish.musicsources.pl/pl/lokalizacje/galeria/rekopisy/5747 @EN{Scan on Polish Music Sources Website} @PL{Skany w portalu Dziedzictwo Muzyki Polskiej w otwartym dostępie}
!!!ONB-nifc: UWAGA: A, T1, T2. Podział na poszególne Deo gratias. A: skan 0003 (m.in)
!!!AIN: 1 alto 2 tenor
!!!key:
**kern	**text	**kern	**text	**kern
*part3	*part3	*part2	*part2	*part1
*staff3	*staff3	*staff2	*staff2	*staff1
*Itenor	*	*Itenor	*	*Ialto
*I"Tenore Vagante.	*	*I"Tenore Chorale.	*	*I"Alto.
*I'T 2	*	*I'T 1	*	*I'A
*clefC4	*	*clefC4	*	*clefC3
*k[b-]	*	*k[b-]	*	*k[b-]
*F:	*	*F:	*	*F:
*M2/1	*	*M2/1	*	*M2/1
*met(c|)	*	*met(c|)	*	*met(c|)
*all\right	*	*all\right	*	*all\right
*2\right	*	*2\right	*	*2\right
=1-	=1-	=1-	=1-	=1-
!LO:TX:t=P:problem=kreska pseudotaktowa	!	!	!	!
*	*	*lig	*	*
1c	De-	1F	De-	1.f
2B-\	.	1G	-o	.
!	!	!	!	!LO:TX:t=P:problem=kreska pseudotaktowa
!LO:TX:t=P:problem=kreska pseudotaktowa	!	!	!	!
2G/	-o	.	.	2e\
=2	=2-	=2-	=2-	=2
!	!	!LO:TX:t=P:problem=kreska pseudotaktowa	!	!LO:TX:t=P:problem=kreska pseudotaktowa
2A\	gra-	1F	.	1f
2Bn\	.	.	.	.
!LO:TX:t=P:problem=kreska pseudotaktowa	!	!	!	!
*	*	*Xlig	*	*
*	*	*lig	*	*
1.c	.	1G	.	2e\
!	!	!	!	!LO:TX:t=P:problem=kreska pseudotaktowa
.	.	.	.	2c/
=3-	=3-	=3-	=3-	=3
!	!	!LO:TX:t=P:problem=kreska pseudotaktowa	!	!
.	.	1A	.	1.f
2c\	-ti-	.	.	.
!LO:TX:t=P:problem=kreska pseudotaktowa	!	!	!	!
*	*	*Xlig	*	*
*	*	*lig	*	*
2B-X\	-as	1G	.	.
!LO:TX:t=P:problem=kreska pseudotaktowa	!	!	!	!
2G/	De-	.	.	4e\
!	!	!	!	!LO:TX:t=P:problem=kreska pseudotaktowa
.	.	.	.	4f\
=4	=4-	=4-	=4-	=4
!	!	!LO:TX:t=P:problem=kreska pseudotaktowa	!	!LO:TX:t=P:problem=kreska pseudotaktowa
1.c	-o	1E	.	1g
*	*	*Xlig	*	*
!	!	!LO:TX:t=P:problem=kreska pseudotaktowa	!	!
.	.	1F	.	2f\
!LO:TX:t=P:problem=kreska pseudotaktowa	!	!	!	!LO:TX:t=P:problem=kreska pseudotaktowa
2f\	.	.	.	2a\
=5	=5-	=5	=5-	=5
!	!	!LO:TX:t=P:problem=kreska pseudotaktowa	!	!
2g\	gra-	1c	gra-	2g\
1fn	.	.	.	1a
!	!	!LO:TX:t=P:problem=kreska pseudotaktowa	!	!
.	.	1B-X	.	.
1e\	.	.	.	1g\
=6-	=6-	=6	=6-	=6-
*	*	*lig	*	*
.	.	1A	.	.
1d	.	.	.	1f
.	.	1G	.	.
1c\	.	.	.	1e\
=7-	=7-	=7-	=7-	=7-
!	!	!LO:TX:t=P:problem=kreska pseudotaktowa	!	!
.	.	1F	.	.
2B-\	.	.	.	2d\
!LO:TX:t=P:problem=kreska pseudotaktowa	!	!	!	!LO:TX:t=P:problem=kreska pseudotaktowa
*	*	*Xlig	*	*
!LO:TX:t=P:problem=kreska pseudotaktowa	!	!	!	!
*	*	*lig	*	*
1B-	.	1G	.	2d\
!	!	!	!	!LO:TX:t=P:problem=kreska pseudotaktowa
.	.	.	.	2g\
=8	=8-	=8-	=8-	=8
!	!	!LO:TX:t=P:problem=kreska pseudotaktowa	!	!LO:TX:t=P:problem=kreska pseudotaktowa
2c\	.	1F	.	1f
2d\	-ti-	.	.	.
!LO:TX:t=P:problem=kreska pseudotaktowa	!	!	!	!
*	*	*Xlig	*	*
*	*	*lig	*	*
!	!	!	!	!LO:TX:t=P:problem=kreska pseudotaktowa
2B-\	-as	1G	.	1g
!LO:TX:t=P:problem=kreska pseudotaktowa	!	!	!	!
2c\	De-	.	.	.
=9	=9-	=9-	=9-	=9
!LO:TX:t=P:problem=kreska pseudotaktowa	!	!LO:TX:t=P:problem=kreska pseudotaktowa	!	!LO:TX:t=P:problem=kreska pseudotaktowa
1c	-o	1A	.	1f
*	*	*Xlig	*	*
!LO:TX:t=P:problem=kreska pseudotaktowa	!	!	!	!
1d	gra-	1.G	.	1.f
=10	=10-	=10-	=10-	=10-
2d\	-ti-	.	.	.
!LO:TX:t=P:problem=kreska pseudotaktowa	!	!LO:TX:t=P:problem=kreska pseudotaktowa	!	!LO:TX:t=P:problem=kreska pseudotaktowa
2c\	.	2G/	-ti-	2e\
!LO:N:vis=0	!	!LO:N:vis=0	!	!LO:N:vis=0
1c;	-as.	1F;	-as.	1f;
==	=-	==	=	==
*-	*-	*-	*-	*-
!!!system-decoration: [(s1,s2,s3)]
!!!ENC: Kamil Watkowski
!!!END: 2021-08-04
